img/svg/logo/footer-logo-white.svg

<svg width="64" height="64" fill="none" xmlns="http://www.w3.org/2000/svg"><path d="M14.93 13.49c-.85.62-1.36 1.47-1.05 1.85.31.43 1.24.23 2.09-.35.85-.61 1.35-1.46 1.04-1.85-.27-.46-1.2-.27-2.08.35zm32.27-1.97l-.31-.43-1.12.31.43.62 1-.5zm.7.42l.54-.81s-.81-1.19-.93-1.81c-.12-.62.35-1.47.39-1.47l-1.2-.89s-.54 1.43-.04 2.86 1.24 2.12 1.24 2.12zm-1.51-5.17L44.04 5l-.12.73 2.24 1.93.23-.89zm-28.53.04c-1.08-1.51-4.52-.93-7.72 1.35-3.17 2.24-4.9 5.33-3.82 6.83 1.08 1.51 4.51.93 7.72-1.35 3.2-2.27 4.9-5.32 3.82-6.83zm-9.5 7.14c-.54-.77-.11-2.04.97-3.28.5-.58 1.77-.69 2.39-.46-.08-.74.85-2.05 1.51-2.32 1.58-.62 2.97-.62 3.51.15.77 1.09-.46 3.33-2.78 4.95s-4.83 2.08-5.6.96zm38.42-3.05l-.24-.38-1.39-.04.39.73 1.24-.31zm.92 1.24l-.31-.31-.96.42.85.7.42-.81zm1.62 2.39c.08-.08.66-.85 1.66-1.78 1.01-.92 2.44-1.85 2.44-1.85s-.89-.89-1.74-1.62c-.85-.73-1.82-1.16-1.82-1.16s-.42 1.31-.84 2.13c-.39.81-1.63 2.89-1.63 2.89.43.19 1.28.35 1.93 1.39zm-2.85-4.21l-.08-.38-1.62-.54.31.81 1.39.11zm3.2-2.58s.93.15 2.24 1.31c1.31 1.16 1.78 1.85 1.78 1.85s.34.08.65-.15c.31-.23.2-.7.2-.7s-.58-.81-1.97-2.01c-.85-.54-1.62-1-2.44-1.23-.15.08-.23-.04-.42.39-.19.42-.04.54-.04.54zm3.28 5.86c-.65.04-2-.5-2-.5l-.7.7s.85.58 2.36.73c1.5.16 2.78-.69 2.78-.69l-1.16-.97c.07.04-.62.7-1.28.73zm-8.91-7.33l.07 1 2.05 1.43-.08-.73-2.04-1.7zm2.27 3.32l-.11-.62-1.97-1.12.42 1.31 1.66.43zm1.89 4.32c-.92-.61-1.89-.73-2.16-.31-.27.43.23 1.28 1.12 1.9.93.61 1.89.73 2.16.3.31-.46-.19-1.31-1.12-1.89zm1.24.74l.93.65.15-1-.39-.23-.69.58zm2.78.19l.42 1.35.85.12-.88-1.47h-.39zm-6.49 4.28c.31-.46 1.74-2.47 2.05-2.89-.77-.27-1.24-.62-1.78-1.2-.38.5-2.08 2.71-2.43 3.17-4.01-1.85-7.95-4.71-11.19-9.11-3.71 4.36-7.3 7.8-12.2 9.65l-3.17-4.17c-.5.66-.96.89-1.47 1.08l2.78 3.71c-.73.23-1.31.34-2.12.5-.5 6.99 1.35 11.58 3.2 15.52-1.04 1.81-1.73 3.63-1.77 5.25-.04 1.2.35 2.12.92 2.82-1.15.15-2.27.5-3.16 1.27-.39.31-.66.73-.81 1.2-.54 0-1.08.11-1.58.31-1.82.69-2.75 2.51-2.44 4.4.31 2.08 2.05 3.59 3.83 4.59 4.47 2.51 9.88 3.28 14.94 3.36 5.4.08 11.27-.42 15.98-3.4.31-.19.04-.69-.27-.5-3.48 2.2-7.61 3.01-11.66 3.24-4.25.27-8.61.04-12.74-.96-2.05-.5-4.09-1.2-5.91-2.24-1.58-.89-3.2-2.2-3.51-4.09-.35-1.82.66-3.55 2.51-4.02.27-.07.58-.11.85-.11 0 .19 0 .34.04.54.23 1 1.04 2.04 1.93 2.51.73.38 1.7.38 2.35-.16.66-.54.62-1.39.08-2-.7-.78-1.89-1.2-2.9-1.36-.27-.03-.54-.07-.81-.11.08-.19.2-.35.35-.54.89-.97 2.16-1.32 3.51-1.43 1.28 1.23 3.05 1.66 3.63 1.62l-2.66 3.75 1.43 1.23 4.9-6.37c1.89 1.74 3.94 3.13 6.14 4.52 2.01-1.31 4.01-2.63 5.83-4.33l5.25 6.1c.69-.31 1-.69 1.35-1.19l-5.29-6.26c.23-.27.5-.54.73-.85-.11-3.01.97-6.6 4.91-6.52 1.93-4.71 3.97-9.5 3.24-15.75-1.08-.16-1.97-.43-2.86-.78zM16.51 46.73c.69.19 2.35.77 2.2 1.77-.08.54-.73.78-1.2.78-.62 0-1.12-.35-1.54-.78-.54-.57-.97-1.27-.93-2 .5 0 1.01.11 1.47.23zm9.77-9.54h-.47c-.38 0-.69-.5-.69-.88 0-.51.35-.89.81-.89.66 0 1 .34 1 1 .04.27-.34.77-.65.77zm18.33-2.43c-2.08.15-3.62 1.82-4.47 3.63l.03-6.87h-5.83v3.86h2.75v3.09h2.97c-.54 1.23-.77 2.55-.73 3.66-2.4 2.59-4.44 3.87-7.03 5.6-2.05-1.35-3.71-2.51-5.41-4.05l.12-.12 5.64-8.14h.81v-1.39c.07-.16.19-.31.27-.47-.08-.15-.16-.31-.27-.5v-1.54h-.7c-.08-.27-.15-.54-.15-.81v-.89c0-1.31.46-2.51.69-3.71.08-.34.35-1.23.5-1.66.04-.15.39-.89.54-1.27v3.01h3.87v-3.86h-3.13c0-.19-.19-.35-.39-.35-.19 0-.35.16-.38.35v.5l-.04-.04-7.3 11.74-.19-.12 7.37-11.77-.04-.12-.69.7-3.17 2.93c-.69.46-1.12.81-1.54 1.04v-.3h-3.86v.96h-.12c-1.31 1.81-3.24 4.17-4.79 6.6-1.73-3.74-3.16-7.26-2.89-13.86 6.37-1.5 11.08-4.86 15.29-10.15 4.21 5.79 10.04 8.72 15.25 10.27.31 5.94-1.16 9.8-2.98 14.05zm8.38-19.92l.77 1.51 1.36.11-1.51-1.66-.62.04zm-2.39.69l.65.27.04-1.19-.46-.2-.23 1.12zm.96-.88v1.27l.78.19-.35-1.35-.43-.11zm2.32.07l1.85 1.66.97-.15-2.13-1.62-.69.11zM24.81 26.19h3.86v-3.86h-3.86v3.86zM44.65 44.8l-.85-1.08.7-.66-1.24-1.54-.77.73.58.81-.89.7-.65-.7-.74.62 3.4 4.01.69-.58-.61-.73.88-.77.74.73.69-.61-1.19-1.4-.74.47zM34.34 21.6h3.87v-3.86h-3.87v3.86zm21.28-7.57l-.81.46 2.47 1.74.65-.27-2.31-1.93zM34.34 30.78h3.87v-3.86h-3.87v3.86zm-9.53-9.18h3.86v-3.86h-3.86v3.86z" fill="#FBFBFB" fill-rule="evenodd"/></svg>

<svg width="64.000000" height="64.000000" viewBox="0 0 64 64" fill="none" xmlns="http://www.w3.org/2000/svg" xmlns:xlink="http://www.w3.org/1999/xlink">
	<desc>
			Created with Pixso.
	</desc>
	<defs/>
	<path id="Vector" d="M14.93 13.49C14.08 14.11 13.57 14.96 13.88 15.34C14.19 15.77 15.12 15.57 15.97 14.99C16.82 14.38 17.32 13.53 17.01 13.14C16.74 12.68 15.81 12.87 14.93 13.49ZM47.2 11.52L46.89 11.09L45.77 11.4L46.2 12.02L47.2 11.52ZM47.9 11.94L48.44 11.13C48.44 11.13 47.63 9.94 47.51 9.32C47.39 8.7 47.86 7.85 47.9 7.85L46.7 6.96C46.7 6.96 46.16 8.39 46.66 9.82C47.16 11.25 47.9 11.94 47.9 11.94ZM46.39 6.77L44.04 5L43.92 5.73L46.16 7.66L46.39 6.77ZM17.86 6.81C16.78 5.3 13.34 5.88 10.14 8.16C6.97 10.4 5.24 13.49 6.32 14.99C7.4 16.5 10.83 15.92 14.04 13.64C17.24 11.37 18.94 8.32 17.86 6.81ZM8.36 13.95C7.82 13.18 8.25 11.91 9.33 10.67C9.83 10.09 11.1 9.98 11.72 10.21C11.64 9.47 12.57 8.16 13.23 7.89C14.81 7.27 16.2 7.27 16.74 8.04C17.51 9.13 16.28 11.37 13.96 12.99C11.64 14.61 9.13 15.07 8.36 13.95ZM46.78 10.9L46.54 10.52L45.15 10.48L45.54 11.21L46.78 10.9ZM47.7 12.14L47.39 11.83L46.43 12.25L47.28 12.95L47.7 12.14ZM49.32 14.53C49.4 14.45 49.98 13.68 50.98 12.75C51.99 11.83 53.42 10.9 53.42 10.9C53.42 10.9 52.53 10.01 51.68 9.28C50.83 8.55 49.86 8.12 49.86 8.12C49.86 8.12 49.44 9.43 49.02 10.25C48.63 11.06 47.39 13.14 47.39 13.14C47.82 13.33 48.67 13.49 49.32 14.53ZM46.47 10.32L46.39 9.94L44.77 9.4L45.08 10.21L46.47 10.32ZM49.67 7.74C49.67 7.74 50.6 7.89 51.91 9.05C53.22 10.21 53.69 10.9 53.69 10.9C53.69 10.9 54.03 10.98 54.34 10.75C54.65 10.52 54.54 10.05 54.54 10.05C54.54 10.05 53.96 9.24 52.57 8.04C51.72 7.5 50.95 7.04 50.13 6.81C49.98 6.89 49.9 6.77 49.71 7.2C49.52 7.62 49.67 7.74 49.67 7.74ZM52.95 13.6C52.3 13.64 50.95 13.1 50.95 13.1L50.25 13.8C50.25 13.8 51.1 14.38 52.61 14.53C54.11 14.69 55.39 13.84 55.39 13.84L54.23 12.87C54.3 12.91 53.61 13.57 52.95 13.6ZM44.04 6.27L44.11 7.27L46.16 8.7L46.08 7.97L44.04 6.27ZM46.31 9.59L46.2 8.97L44.23 7.85L44.65 9.16L46.31 9.59ZM48.2 13.91C47.28 13.3 46.31 13.18 46.04 13.6C45.77 14.03 46.27 14.88 47.16 15.5C48.09 16.11 49.05 16.23 49.32 15.8C49.63 15.34 49.13 14.49 48.2 13.91ZM49.44 14.65L50.37 15.3L50.52 14.3L50.13 14.07L49.44 14.65ZM52.22 14.84L52.64 16.19L53.49 16.31L52.61 14.84L52.22 14.84ZM45.73 19.12C46.04 18.66 47.47 16.65 47.78 16.23C47.01 15.96 46.54 15.61 46 15.03C45.62 15.53 43.92 17.74 43.57 18.2C39.56 16.35 35.62 13.49 32.38 9.09C28.67 13.45 25.08 16.89 20.18 18.74L17.01 14.57C16.51 15.23 16.05 15.46 15.54 15.65L18.32 19.36C17.59 19.59 17.01 19.7 16.2 19.86C15.7 26.85 17.55 31.44 19.4 35.38C18.36 37.19 17.67 39.01 17.63 40.63C17.59 41.83 17.98 42.75 18.55 43.45C17.4 43.6 16.28 43.95 15.39 44.72C15 45.03 14.73 45.45 14.58 45.92C14.04 45.92 13.5 46.03 13 46.23C11.18 46.92 10.25 48.74 10.56 50.63C10.87 52.71 12.61 54.22 14.39 55.22C18.86 57.73 24.27 58.5 29.33 58.58C34.73 58.66 40.6 58.16 45.31 55.18C45.62 54.99 45.35 54.49 45.04 54.68C41.56 56.88 37.43 57.69 33.38 57.92C29.13 58.19 24.77 57.96 20.64 56.96C18.59 56.46 16.55 55.76 14.73 54.72C13.15 53.83 11.53 52.52 11.22 50.63C10.87 48.81 11.88 47.08 13.73 46.61C14 46.54 14.31 46.5 14.58 46.5C14.58 46.69 14.58 46.84 14.62 47.04C14.85 48.04 15.66 49.08 16.55 49.55C17.28 49.93 18.25 49.93 18.9 49.39C19.56 48.85 19.52 48 18.98 47.39C18.28 46.61 17.09 46.19 16.08 46.03C15.81 46 15.54 45.96 15.27 45.92C15.35 45.73 15.47 45.57 15.62 45.38C16.51 44.41 17.78 44.06 19.13 43.95C20.41 45.18 22.18 45.61 22.76 45.57L20.1 49.32L21.53 50.55L26.43 44.18C28.32 45.92 30.37 47.31 32.57 48.7C34.58 47.39 36.58 46.07 38.4 44.37L43.65 50.47C44.34 50.16 44.65 49.78 45 49.28L39.71 43.02C39.94 42.75 40.21 42.48 40.44 42.17C40.33 39.16 41.41 35.57 45.35 35.65C47.28 30.94 49.32 26.15 48.59 19.9C47.51 19.74 46.62 19.47 45.73 19.12ZM16.51 46.73C17.2 46.92 18.86 47.5 18.71 48.5C18.63 49.04 17.98 49.28 17.51 49.28C16.89 49.28 16.39 48.93 15.97 48.5C15.43 47.93 15 47.23 15.04 46.5C15.54 46.5 16.05 46.61 16.51 46.73ZM26.28 37.19L25.81 37.19C25.43 37.19 25.12 36.69 25.12 36.31C25.12 35.8 25.47 35.42 25.93 35.42C26.59 35.42 26.93 35.76 26.93 36.42C26.97 36.69 26.59 37.19 26.28 37.19ZM44.61 34.76C42.53 34.91 40.99 36.58 40.14 38.39L40.17 31.52L34.34 31.52L34.34 35.38L37.09 35.38L37.09 38.47L40.06 38.47C39.52 39.7 39.29 41.02 39.33 42.13C36.93 44.72 34.89 46 32.3 47.73C30.25 46.38 28.59 45.22 26.89 43.68C26.93 43.64 26.97 43.6 27.01 43.56L32.65 35.42L33.46 35.42L33.46 34.03C33.53 33.87 33.65 33.72 33.73 33.56C33.65 33.41 33.57 33.25 33.46 33.06L33.46 31.52L32.76 31.52C32.68 31.25 32.61 30.98 32.61 30.71L32.61 29.82C32.61 28.51 33.07 27.31 33.3 26.11C33.38 25.77 33.65 24.88 33.8 24.45C33.84 24.3 34.19 23.56 34.34 23.18L34.34 26.19L38.21 26.19L38.21 22.33L35.08 22.33C35.08 22.14 34.89 21.98 34.69 21.98C34.5 21.98 34.34 22.14 34.31 22.33L34.31 22.83L34.27 22.79L26.97 34.53L26.78 34.41L34.15 22.64L34.11 22.52L33.42 23.22L30.25 26.15C29.56 26.61 29.13 26.96 28.71 27.19L28.71 26.89L24.85 26.89L24.85 27.85L24.73 27.85C23.42 29.66 21.49 32.02 19.94 34.45C18.21 30.71 16.78 27.19 17.05 20.59C23.42 19.09 28.13 15.73 32.34 10.44C36.55 16.23 42.38 19.16 47.59 20.71C47.9 26.65 46.43 30.51 44.61 34.76ZM52.99 14.84L53.76 16.35L55.12 16.46L53.61 14.8L52.99 14.84ZM50.6 15.53L51.25 15.8L51.29 14.61L50.83 14.41L50.6 15.53ZM51.56 14.65L51.56 15.92L52.34 16.11L51.99 14.76L51.56 14.65ZM53.88 14.72L55.73 16.38L56.7 16.23L54.57 14.61L53.88 14.72ZM24.81 26.19L28.67 26.19L28.67 22.33L24.81 22.33L24.81 26.19ZM44.65 44.8L43.8 43.72L44.5 43.06L43.26 41.52L42.49 42.25L43.07 43.06L42.18 43.76L41.53 43.06L40.79 43.68L44.19 47.69L44.88 47.11L44.27 46.38L45.15 45.61L45.89 46.34L46.58 45.73L45.39 44.33L44.65 44.8ZM34.34 21.6L38.21 21.6L38.21 17.74L34.34 17.74L34.34 21.6ZM55.62 14.03L54.81 14.49L57.28 16.23L57.93 15.96L55.62 14.03ZM34.34 30.78L38.21 30.78L38.21 26.92L34.34 26.92L34.34 30.78ZM24.81 21.6L28.67 21.6L28.67 17.74L24.81 17.74L24.81 21.6Z" fill="#FBFBFB" fill-opacity="1.000000" fill-rule="evenodd"/>
</svg>
